packages/astro-components-stencil/src/icons/calendar-view-day.svg

<svg xmlns="http://www.w3.org/2000/svg" viewBox="0 0 24 24"><g xmlns="http://www.w3.org/2000/svg" id="calendar-view-day" fill-rule="nonzero">
            <path d="M4 17h16c.55 0 1 .45 1 1s-.45 1-1 1H4c-.55 0-1-.45-1-1s.45-1 1-1zm0-7h16c.55 0 1 .45 1 1v3c0 .55-.45 1-1 1H4c-.55 0-1-.45-1-1v-3c0-.55.45-1 1-1zm0-4h16c.55 0 1 .45 1 1s-.45 1-1 1H4c-.55 0-1-.45-1-1s.45-1 1-1z"/>
        </g></svg>

<svg width="24" height="24" viewBox="0 0 24 24" fill="none" xmlns="http://www.w3.org/2000/svg">
<path fill-rule="evenodd" clip-rule="evenodd" d="M20 6H4C3.45 6 3 6.45 3 7C3 7.55 3.45 8 4 8H20C20.55 8 21 7.55 21 7C21 6.45 20.55 6 20 6ZM4 10H20C20.55 10 21 10.45 21 11V14C21 14.55 20.55 15 20 15H4C3.45 15 3 14.55 3 14V11C3 10.45 3.45 10 4 10ZM4 17H20C20.55 17 21 17.45 21 18C21 18.55 20.55 19 20 19H4C3.45 19 3 18.55 3 18C3 17.45 3.45 17 4 17Z" fill="black"/>
</svg>
